resources/img/btn_twitter.svg

<svg fill="none" height="51" viewBox="0 0 51 51" width="51" xmlns="http://www.w3.org/2000/svg"><rect fill="#1da1f2" height="51" rx="10" width="51"/><path d="m40.9213 17.1386c.0109-.0161.0237-.0307.0346-.0468-.8569.3799-1.7665.6567-2.7137.8291-.226.034-.4534.0631-.6834.0808.9664-.5918 1.7429-1.4532 2.2466-2.4752.1325-.2542.2608-.5111.3587-.7809-.0113.0068-.0237.0121-.035.0188.005-.0159.0142-.0297.0191-.0456-1.1584.6868-2.4415 1.186-3.8074 1.455-1.0936-1.1655-2.652-1.8935-4.3765-1.8935-3.3118 0-5.9963 2.6845-5.9963 5.9958 0 .4312.0498.8504.1361 1.2559.0053.037.0083.0727.0136.1099-4.3825-.2212-8.3259-2.0975-11.224-5.0151-.3849-.393-.7563-.8011-1.1027-1.2338-.0018.0031-.0028.006-.0045.009-.0071-.0085-.0151-.0158-.0222-.0245-.516.8857-.8116 1.9154-.8116 3.0144 0 1.7168.728 3.2597 1.8847 4.3533.2297.2262.4727.4411.7386.6336-.9664-.038-1.8756-.3037-2.6719-.746-.0003.0251-.0005.0501-.0005.0755 0 2.4158 1.4394 4.4816 3.4984 5.4314.3991.1919.8146.3548 1.2587.4583-.4879.1281-.9989.1998-1.5269.1998-.3412 0-.671-.0399-.9963-.095-.0332-.0093-.0699-.0116-.1024-.0222.0016.0045.0039.0085.0053.0129-.0113-.0021-.0237-.0013-.0348-.0034.6678 2.0853 2.4481 3.6734 4.6412 4.0694.3046.0609.6166.0987.9342.1135-2.0482 1.5964-4.6233 2.5481-7.4211 2.5481-.389 0-.7702-.0314-1.1498-.0674-.0876-.0156-.1784-.0214-.2639-.0425.0166.0106.0342.0196.0507.0302-.0221-.0025-.0452-.0016-.0671-.004 2.6534 1.7013 5.805 2.6938 9.1914 2.6938 6.0934 0 10.6525-2.7946 13.5205-6.6271.0095-.0127.0201-.0244.0294-.037.2742-.3684.5266-.7483.7691-1.1342.0499-.0787.1051-.154.1536-.2335.2236-.3686.4255-.7465.6206-1.1274.0486-.0948.1039-.1864.1507-.2823.2273-.4638.4321-.935.6169-1.4117.0024-.0056.0048-.0111.0071-.0167.7838-2.0262 1.1921-4.1475 1.1921-6.1901 0-.2602-.0058-.5187-.0174-.7758.9319-.6728 1.7602-1.4832 2.4671-2.3899.184-.2247.3661-.4509.5372-.6858-.0153.007-.0314.0123-.0468.0189z" fill="#fff"/></svg>

<svg width="51" height="51" viewBox="0 0 51 51" fill="none" xmlns="http://www.w3.org/2000/svg">
<rect width="51" height="51" rx="10" fill="#1DA1F2"/>
<path d="M40.9213 17.1386C40.9322 17.1225 40.945 17.1079 40.9559 17.0918C40.099 17.4717 39.1894 17.7485 38.2422 17.9209C38.0162 17.9549 37.7888 17.984 37.5588 18.0017C38.5252 17.4099 39.3017 16.5485 39.8054 15.5265C39.9379 15.2723 40.0662 15.0154 40.1641 14.7456C40.1528 14.7524 40.1404 14.7577 40.1291 14.7644C40.1341 14.7485 40.1433 14.7347 40.1482 14.7188C38.9898 15.4056 37.7067 15.9048 36.3408 16.1738C35.2472 15.0083 33.6888 14.2803 31.9643 14.2803C28.6525 14.2803 25.968 16.9648 25.968 20.2761C25.968 20.7073 26.0178 21.1265 26.1041 21.532C26.1094 21.569 26.1124 21.6047 26.1177 21.6419C21.7352 21.4207 17.7918 19.5444 14.8937 16.6268C14.5088 16.2338 14.1374 15.8257 13.791 15.393C13.7892 15.3961 13.7882 15.399 13.7865 15.402C13.7794 15.3935 13.7714 15.3862 13.7643 15.3775C13.2483 16.2632 12.9527 17.2929 12.9527 18.3919C12.9527 20.1087 13.6807 21.6516 14.8374 22.7452C15.0671 22.9714 15.3101 23.1863 15.576 23.3788C14.6096 23.3408 13.7004 23.0751 12.9041 22.6328C12.9038 22.6579 12.9036 22.6829 12.9036 22.7083C12.9036 25.1241 14.343 27.1899 16.402 28.1397C16.8011 28.3316 17.2166 28.4945 17.6607 28.598C17.1728 28.7261 16.6618 28.7978 16.1338 28.7978C15.7926 28.7978 15.4628 28.7579 15.1375 28.7028C15.1043 28.6935 15.0676 28.6912 15.0351 28.6806C15.0367 28.6851 15.039 28.6891 15.0404 28.6935C15.0291 28.6914 15.0167 28.6922 15.0056 28.6901C15.6734 30.7754 17.4537 32.3635 19.6468 32.7595C19.9514 32.8204 20.2634 32.8582 20.581 32.873C18.5328 34.4694 15.9577 35.4211 13.1599 35.4211C12.7709 35.4211 12.3897 35.3897 12.0101 35.3537C11.9225 35.3381 11.8317 35.3323 11.7462 35.3112C11.7628 35.3218 11.7804 35.3308 11.7969 35.3414C11.7748 35.3389 11.7517 35.3398 11.7298 35.3374C14.3832 37.0387 17.5348 38.0312 20.9212 38.0312C27.0146 38.0312 31.5737 35.2366 34.4417 31.4041C34.4512 31.3914 34.4618 31.3797 34.4711 31.3671C34.7453 30.9987 34.9977 30.6188 35.2402 30.2329C35.2901 30.1542 35.3453 30.0789 35.3938 29.9994C35.6174 29.6308 35.8193 29.2529 36.0144 28.872C36.063 28.7772 36.1183 28.6856 36.1651 28.5897C36.3924 28.1259 36.5972 27.6547 36.782 27.178C36.7844 27.1724 36.7868 27.1669 36.7891 27.1613C37.5729 25.1351 37.9812 23.0138 37.9812 20.9712C37.9812 20.711 37.9754 20.4525 37.9638 20.1954C38.8957 19.5226 39.724 18.7122 40.4309 17.8055C40.6149 17.5808 40.797 17.3546 40.9681 17.1197C40.9528 17.1267 40.9367 17.132 40.9213 17.1386Z" fill="white"/>
</svg>
